!!!!SEGMENT: pl-sa--236-a-vi-40--002_toeschi-carl-joseph--sinfonia-andante.krn
!!!cenid: 17xx:1999
!!!COM: Toeschi, Carl Joseph
!!!COM-rismid: pe30003139
!!!CDT: 1731-1788
!!!CNT: Italian
!!!OPR: Sinfonia
!!!OTL: Andante
!!!OMV: 002
!!!PDT:
!!!AGN: Secular
!!!SMS-siglum: PL-SA
!!!SMS-shelfmark: 236/A VI 40
!!!SMS-shelfwork: 001-002 M
!!!SMS-variant:
!!!SMS-altvar:
!!!NIFC-rismid: 1001035309
!!!URL-scan: http://bc.bdsandomierz.pl/dlibra/publication/1589/edition/1557/content
!!!ONB-nifc: UWAGA: części Sinfonii: 1. Allegro, 2. Andante, 3. Allegro
!!!key: B-
**kern	**dynam	**kern	**dynam	**kern	**dynam	**kern	**dynam	**kern	**dynam	**kern
*part6	*part6	*part5	*part5	*part4	*part4	*part3	*part3	*part2	*part2	*part1
*staff6	*	*staff5	*	*staff4	*	*staff3	*	*staff2	*	*staff1
*I"Basso	*	*I"Violia	*	*I"Violino Secundo.	*	*I"Violino Primo	*	*I"Oboa Secundo	*	*I"Oboa Prima
*I'cb	*	*I'vla	*	*I'vl 2	*	*I'vl 1	*	*I'ob 2	*	*I'ob 1
*Icbass	*	*Iviola	*	*Ivioln	*	*Ivioln	*	*Ioboe	*	*Ioboe
*ICstr	*	*ICstr	*	*ICstr	*	*ICstr	*	*ICww	*	*ICww
*>[A,A,B,B]	*	*>[A,A,B,B]	*	*>[A,A,B,B]	*	*>[A,A,B,B]	*	*>[A,A,B,B]	*	*>[A,A,B,B]
*clefF4	*	*clefC3	*	*clefG2	*	*clefG2	*	*clefG2	*	*clefG2
*Trd0c0	*	*	*	*	*	*	*	*	*	*
*k[b-e-]	*	*k[b-e-]	*	*k[b-e-]	*	*k[b-e-]	*	*k[b-e-]	*	*k[b-e-]
*B-:	*	*B-:	*	*B-:	*	*B-:	*	*B-:	*	*B-:
*M2/4	*	*M2/4	*	*M2/4	*	*M2/4	*	*M2/4	*	*M2/4
*>A	*	*>A	*	*>A	*	*>A	*	*>A	*	*>A
!	!	!	!	!	!	!	!	!	!	!LO:TX:a:i:B:t=Andante
!	!	!	!	!LO:TX:a:i:B:t=Andan	!LO:DY:t=pia	!LO:TX:a:i:B:t=Andante	!LO:DY:a:t=p.	!LO:TX:a:i:B:t=Andante	!	!
16r	.	16r	.	16d/	p	16b-\	p	16r	.	16r
=1	=1	=1	=1	=1	=1	=1	=1	=1	=1	=1
8r	.	8r	.	(4d/	.	(4b-\	.	0r	.	0r
!LO:TX:t=P:problem:mixed beam	!	!LO:TX:t=P:problem:mixed beam	!	!	!	!	!	!	!	!
8B-\L	.	8b-\L	.	.	.	.	.	.	.	.
8BB-/	.	8B-/	.	8b-/)	.	8dd\)	.	.	.	.
8B-\J	.	8b-\J	.	16r	.	16r	.	.	.	.
.	.	.	.	16dd\	.	16ff\	.	.	.	.
=2	=2	=2	=2	=2	=2	=2	=2	=2	=2	=2
8r	.	8r	.	(8.dd\L	.	(4ff\	.	.	.	.
!LO:TX:t=P:problem:mixed beam	!	!LO:TX:t=P:problem:mixed beam	!	!	!	!	!	!	!	!
8B-\L	.	8b-\L	.	.	.	.	.	.	.	.
.	.	.	.	16ff\Jk)	.	.	.	.	.	.
8BB-/	.	8B-/	.	8dd\	.	8bb-\)	.	.	.	.
8B-\J	.	8b-\J	.	16r	.	16r	.	.	.	.
.	.	.	.	16cc\	.	16ee-\	.	.	.	.
=3	=3	=3	=3	=3	=3	=3	=3	=3	=3	=3
8r	.	8r	.	(4cc\	.	(4ee-\	.	.	.	.
!LO:TX:t=P:problem:mixed beam	!	!LO:TX:t=P:problem:mixed beam	!	!	!	!	!	!	!	!
8F\L	.	8f\L	.	.	.	.	.	.	.	.
8FF/	.	8F/	.	16a\)	.	16cc\)	.	.	.	.
.	.	.	.	16r	.	16r	.	.	.	.
.	.	.	.	8qf/	.	8qdd/	.	.	.	.
8F\J	.	8f\J	.	(16e-/LL	.	(16cc\LL	.	.	.	.
.	.	.	.	32d/L	.	32b-\L	.	.	.	.
.	.	.	.	32c/JJJ)	.	32a\JJJ)	.	.	.	.
=4	=4	=4	=4	=4	=4	=4	=4	=4	=4	=4
.	.	.	.	8qqc/	.	8qqa/	.	.	.	.
!	!LO:DY:a	!	!	!	!LO:DY:a:rj:t=f&colon;	!	!LO:DY:a:t=f.	!	!	!
8B-\L	f	8b-\L	.	8d/L	f	8b-/L	f	.	.	.
(32F\LL	.	(32f\LL	.	32f/LL	.	32f/LL	.	.	.	.
32E-\	.	32e-\	.	32e-/	.	32e-/	.	.	.	.
32D\	.	32d\	.	32d/	.	32d/	.	.	.	.
32C\JJJ)	.	32c\JJJ)	.	32c/JJJ	.	32c/JJJ	.	.	.	.
!LO:TX:t=P:problem:mixed beam	!	!LO:TX:t=P:problem:mixed beam	!	!	!	!	!	!	!	!
8BB-/L	.	8B-/L	.	8B-/	.	8B-/	.	.	.	.
8B-\J	.	8b-\J	.	16r	.	16r	.	.	.	.
!	!	!	!	!	!	!	!LO:DY:a	!	!	!
.	.	.	.	16d/	.	16b-\	p	.	.	.
!LO:LB:g=original	!	!	!	!	!	!	!	!	!	!
=5	=5	=5	=5	=5	=5	=5	=5	=5	=5	=5
8r	.	8r	.	(4d/	.	(4b-\	.	0r	.	0r
!LO:TX:t=P:problem:mixed beam	!	!LO:TX:t=P:problem:mixed beam	!	!	!	!	!	!	!	!
8B-\L	.	8b-\L	.	.	.	.	.	.	.	.
8BB-/	.	8B-/	.	8b-/)	.	8dd\)	.	.	.	.
8B-\J	.	8b-\J	.	16r	.	16r	.	.	.	.
.	.	.	.	16dd\	.	16ff\	.	.	.	.
=6	=6	=6	=6	=6	=6	=6	=6	=6	=6	=6
8r	.	8r	.	8.dd\L	.	(4ff\	.	.	.	.
!LO:TX:t=P:problem:mixed beam	!	!LO:TX:t=P:problem:mixed beam	!	!	!	!	!	!	!	!
8B-\L	.	8b-\L	.	.	.	.	.	.	.	.
.	.	.	.	16ff\Jk	.	.	.	.	.	.
8BB-/	.	8B-/	.	8dd\	.	8bb-\)	.	.	.	.
8B-\J	.	8b-\J	.	16r	.	16r	.	.	.	.
.	.	.	.	16cc\	.	16ee-\	.	.	.	.
=7	=7	=7	=7	=7	=7	=7	=7	=7	=7	=7
8r	.	8r	.	8.cc\L	.	8.ee-\L	.	.	.	.
!LO:TX:t=P:problem:mixed beam	!	!LO:TX:t=P:problem:mixed beam	!	!	!	!	!	!	!	!
8F\L	.	8f\L	.	.	.	.	.	.	.	.
.	.	.	.	16a\Jk	.	16cc\Jk	.	.	.	.
8B-\	.	8b-\	.	16b-/LL	.	(16dd\LL	.	.	.	.
.	.	.	.	16f/	.	16b-\)	.	.	.	.
8BB-/J	.	8B-/J	.	16dd/	.	(16ff\	.	.	.	.
.	.	.	.	16b-/JJ	.	16dd\JJ)	.	.	.	.
!	!	!	!	!LO:PB:g=original	!	!	!	!	!	!
=8	=8	=8	=8	=8	=8	=8	=8	=8	=8	=8
!LO:TX:t=P:problem:mixed beam	!	!LO:TX:t=P:problem:mixed beam	!	!	!	!	!	!	!	!
.	.	.	.	8qqb-/	.	8qqdd/	.	.	.	.
8F\L	.	8f\L	.	4.a/	.	4.cc\	.	.	.	.
8F\	.	8f\	.	.	.	.	.	.	.	.
8FF/	.	8F/	.	.	.	.	.	.	.	.
8F\J	.	8f\J	.	8r	.	16r	.	.	.	.
!	!	!	!	!	!	!	!LO:DY:a	!	!	!
.	.	.	.	.	.	16ff\	f	.	.	.
!	!	!	!	!	!	!LO:LB:g=original	!	!	!	!
=9	=9	=9	=9	=9	=9	=9	=9	=9	=9	=9
*	*	*^	*	*^	*	*	*	*	*	*
!	!	!	!	!LO:DY:a:rj:t=f&colon;	!	!	!	!	!	!	!	!
8r	.	4.en/	4.c\	f	4.b-/	4.g\	.	(16ff\LL	.	0r	.	0r
.	.	.	.	.	.	.	.	16een\JJ)	.	.	.	.
8C\L	.	.	.	.	.	.	.	4gg\	.	.	.	.
8En\	.	.	.	.	.	.	.	.	.	.	.	.
8C\J	.	8r	8ryy	.	16r	8ryy	.	16r	.	.	.	.
!	!	!	!	!	!	!	!	!	!LO:DY:a:t=p&colon;	!	!	!
.	.	.	.	.	16g/	.	.	16b-\	p	.	.	.
*	*	*v	*v	*	*	*	*	*	*	*	*	*
*	*	*	*	*v	*v	*	*	*	*	*	*
=10	=10	=10	=10	=10	=10	=10	=10	=10	=10	=10
8r	.	8r	.	(4g/	.	4b-\	.	.	.	.
!LO:TX:t=P:problem:mixed beam	!	!LO:TX:t=P:problem:mixed beam	!LO:DY:a:rj:t=p&colon;	!	!	!	!	!	!	!
8F\L	.	8f\L	p	.	.	.	.	.	.	.
!	!	!	!	!	!	!LO:N:vis=16	!	!	!	!
8FF/	.	8F/	.	8f/)	.	8a\	.	.	.	.
8F\J	.	8f\J	.	8r	.	16r	.	.	.	.
.	.	.	.	.	.	16ff\	.	.	.	.
=11	=11	=11	=11	=11	=11	=11	=11	=11	=11	=11
*	*	*^	*	*^	*	*	*	*	*	*
!	!	!	!	!LO:DY:a:rj:t=f&colon;	!	!	!	!	!LO:DY:a:rj	!	!	!
8r	.	4.en/	4.c\	f	4.b-/	4.g\	.	(16ff\LL	f	.	.	.
.	.	.	.	.	.	.	.	16een\JJ)	.	.	.	.
8C\L	.	.	.	.	.	.	.	8bb-\L	.	.	.	.
8En\	.	.	.	.	.	.	.	8gg\J	.	.	.	.
8C\J	.	8r	8ryy	.	16r	8ryy	.	16r	.	.	.	.
!	!	!	!	!	!	!	!	!	!LO:DY:a:t=p&colon;	!	!	!
.	.	.	.	.	16g/	.	.	16b-\	p	.	.	.
*	*	*v	*v	*	*	*	*	*	*	*	*	*
*	*	*	*	*v	*v	*	*	*	*	*	*
=12	=12	=12	=12	=12	=12	=12	=12	=12	=12	=12
8r	.	8r	.	(4g/	.	(4b-\	.	.	.	.
!LO:TX:t=P:problem:mixed beam	!	!LO:TX:t=P:problem:mixed beam	!LO:DY:a:rj:t=p&colon;	!	!	!	!	!	!	!
8F\L	.	8f\L	p	.	.	.	.	.	.	.
!	!	!	!	!	!	!LO:N:vis=16	!	!	!	!
8FF/	.	8F/	.	8f/)	.	8a\)	.	.	.	.
8F\J	.	8f\J	.	8r	.	16r	.	.	.	.
.	.	.	.	.	.	16ff\	.	.	.	.
=13	=13	=13	=13	=13	=13	=13	=13	=13	=13	=13
*	*	*	*	*2\right	*	*	*	*	*	*
8r	.	8r	.	2ff\	.	4ccc\	.	0r	.	0r
8A\L	.	8a\L	.	.	.	.	.	.	.	.
8B-\	.	8b-\J	.	.	.	(32bb-\KLL	.	.	.	.
.	.	.	.	.	.	16.aa\JJ)	.	.	.	.
!	!	!LO:LB:g=original	!	!	!	!	!	!	!	!
8Bn\J	.	8bn\	.	.	.	(32gg\KLL	.	.	.	.
.	.	.	.	.	.	16.ff\JJ)	.	.	.	.
=14	=14	=14	=14	=14	=14	=14	=14	=14	=14	=14
!LO:TX:t=P:problem:mixed beam	!	!LO:TX:t=P:problem:mixed beam	!	!	!	!	!	!	!	!
8c\L	.	8cc\L	.	16een\LL	.	(16een\LL	.	.	.	.
.	.	.	.	(32dd\L	.	32dd\L	.	.	.	.
.	.	.	.	32cc\JJJ)	.	32cc\JJJ)	.	.	.	.
8C/	.	8c/	.	4cc\	.	4cc\	.	.	.	.
8c\J	.	8cc\J	.	.	.	.	.	.	.	.
16r	.	16r	.	16r	.	16r	.	.	.	.
!	!	!	!LO:DY:a:t=f&colon;	!	!LO:DY:a:rj	!	!LO:DY:a	!	!	!
16F\	.	16f\	f	16f/	f	16f/	f	.	.	.
=15	=15	=15	=15	=15	=15	=15	=15	=15	=15	=15
!LO:N:vis=16	!	!	!	!	!	!	!	!	!	!
4c\	.	4cc\	.	4cc\	.	4cc\	.	.	.	.
16.B-\LL	.	16.b-\LL	.	16.b-\LL	.	16.b-\LL	.	.	.	.
32A\K	.	32a\K	.	32a\JJk	.	32a\JJk	.	.	.	.
16.G\	.	16.g\	.	16.g/LL	.	16.g/LL	.	.	.	.
32F\JJk	.	32f\JJk	.	32f/JJk	.	32f/JJk	.	.	.	.
=16	=16	=16	=16	=16	=16	=16	=16	=16	=16	=16
!LO:TX:t=P:problem:mixed beam	!	!LO:TX:t=P:problem:mixed beam	!	!LO:TX:t=P:problem:mixed beam	!	!LO:TX:t=P:problem:mixed beam	!	!	!	!
8c\L	.	8cc\L	.	8cc\L	.	8cc\L	.	.	.	.
8C/	.	8c/J	.	8c/J	.	8c/J	.	.	.	.
8E-/	.	4r	.	4r	.	8r	.	.	.	.
8G/J	.	.	.	.	.	16r	.	.	.	.
.	.	.	.	.	.	16ccc\	.	.	.	.
=17	=17	=17	=17	=17	=17	=17	=17	=17	=17	=17
*	*	*tremolo	*	*	*	*	*	*2\right	*	*2\right
*	*	*	*	*tremolo	*	*	*	*	*	*
!	!	!	!	!	!LO:DY:a:rj:t=p&colon;	!	!	!LO:TX:t=P:problem:2\right:global	!LO:DY:a:rj:t=p&colon;	!
8C\L	.	16b-\LL	.	16cc\LL	p	(4ccc\	.	[2ccc\	p	[2ccc\
.	.	16b-\	.	16cc\	.	.	.	.	.	.
8B-\	.	16b-\	.	16cc\	.	.	.	.	.	.
.	.	16b-\JJ	.	16cc\JJ	.	.	.	.	.	.
8G\	.	16b-\LL	.	16cc\LL	.	8een\)	.	.	.	.
.	.	16b-\	.	16cc\	.	.	.	.	.	.
!	!	!	!	!	!	!LO:LB:g=original	!LO:DY:a:t=p&colon;	!	!	!
8B-\J	.	16b-\	.	16cc\	.	16r	p	.	.	.
.	.	16b-\JJ	.	16cc\JJ	.	16ee\	.	.	.	.
!LO:LB:g=original	!	!	!	!	!	!	!	!	!	!
=18	=18	=18	=18	=18	=18	=18	=18	=18	=18	=18
8C\L	.	16a\LL	.	16cc\LL	.	(16ee-\LL	.	2ccc\_	.	2ccc\_
.	.	16a\	.	16cc\	.	16ff\J)	.	.	.	.
8A\	.	16a\	.	16cc\	.	8cc\J	.	.	.	.
.	.	16a\JJ	.	16cc\JJ	.	.	.	.	.	.
8F\	.	16a\LL	.	16cc\LL	.	8r	.	.	.	.
.	.	16a\	.	16cc\	.	.	.	.	.	.
!	!	!	!	!	!	!	!LO:DY:a	!	!	!
8A\J	.	16a\	.	16cc\	.	16r	f	.	.	.
.	.	16a\JJ	.	16cc\JJ	.	16ccc\	.	.	.	.
=19	=19	=19	=19	=19	=19	=19	=19	=19	=19	=19
8C\L	.	16b-\LL	.	16cc\LL	.	(4ccc\	.	2ccc\_	.	2ccc\_
.	.	16b-\	.	16cc\	.	.	.	.	.	.
8B-\	.	16b-\	.	16cc\	.	.	.	.	.	.
.	.	16b-\JJ	.	16cc\JJ	.	.	.	.	.	.
8G\	.	16b-\LL	.	16cc\LL	.	8een\)	.	.	.	.
.	.	16b-\	.	16cc\	.	.	.	.	.	.
*	*	*	*	*	*	*	*above	*	*	*
8B-\J	.	16b-\	.	16cc\	.	16r	p	.	.	.
.	.	16b-\JJ	.	16cc\JJ	.	16ee\	.	.	.	.
=20	=20	=20	=20	=20	=20	=20	=20	=20	=20	=20
8C\L	.	16a\LL	.	16cc\LL	.	(16ee-\LL	.	4.ccc\]	.	4.ccc\]
.	.	16a\	.	16cc\	.	16ff\J)	.	.	.	.
8A\	.	16a\	.	16cc\	.	8cc\J	.	.	.	.
.	.	16a\JJ	.	16cc\JJ	.	.	.	.	.	.
*	*	*	*	*Xtremolo	*	*	*	*	*	*
8F\	.	16a\LL	.	16cc\LL	.	8r	.	.	.	.
.	.	16a\	.	16cc\	.	.	.	.	.	.
8A\J	.	16a\	.	16cc\	.	16r	p	8r	.	8r
.	.	16a\JJ	.	16f\JJ	.	16a/	.	.	.	.
!	!	!	!	!LO:LB:g=original	!	!	!	!	!	!
*	*	*Xtremolo	*	*	*	*	*	*	*	*
=21	=21	=21	=21	=21	=21	=21	=21	=21	=21	=21
2r	.	2r	.	(16g'/LL	.	(16b-'\LL	.	0r	.	0r
.	.	.	.	16a'/	.	16cc'\	.	.	.	.
.	.	.	.	16b-'/	.	16dd'\	.	.	.	.
.	.	.	.	16cc'/JJ)	.	16een'\JJ	.	.	.	.
.	.	.	.	(16dd'\LL	.	16ff'\LL	.	.	.	.
.	.	.	.	16een'\	.	16gg'\)	.	.	.	.
.	.	.	.	16ff'\	.	16aa'\	.	.	.	.
.	.	.	.	16gg'\JJ)	.	16bb-'\JJ	.	.	.	.
=22	=22	=22	=22	=22	=22	=22	=22	=22	=22	=22
8r	.	8r	.	16aa\LL	.	16ccc\LL|	.	.	.	.
.	.	.	.	16ff\J	.	16aa\J|	.	.	.	.
16r	.	16r	.	8aa\J	.	8ccc\J	.	.	.	.
!	!LO:DY:a:t=f&colon;	!	!LO:DY:a:t=f&colon;	!	!	!	!	!	!	!
16F\	f	16a\	f	.	.	.	.	.	.	.
16.En\LL	.	16.g\LL	.	8r	.	8r	.	.	.	.
32D\K	.	32f\K	.	.	.	.	.	.	.	.
16.C\	.	16.e-\	.	16r	.	16r	.	.	.	.
!	!	!	!	!	!LO:DY:a:t=f&colon;	!	!LO:DY:a:t=f&colon;	!	!	!
.	.	.	.	16f/	f	16dd\	f	.	.	.
32BB-\JJk	.	32f\JJk	.	.	.	.	.	.	.	.
=23	=23	=23	=23	=23	=23	=23	=23	=23	=23	=23
!	!LO:DY:a:t=p&colon;	!LO:TX:t=P:problem:takt na dole str.15	!	!	!	!	!	!	!	!
8AA/L	p	8f-X\L	.	8f/	.	8cc\L	.	.	.	.
.	.	.	.	.	.	8qee-/	.	.	.	.
8BB-/	.	8B-\	.	4f/	.	(16dd\L	.	.	.	.
.	.	.	.	.	.	32cc\L	.	.	.	.
.	.	.	.	.	.	32b-\JJJ)	.	.	.	.
8C/	.	8c\	.	.	.	8a/L	.	.	.	.
8C/J	.	8c\J	.	8en/	.	8g/J	.	.	.	.
=24	=24	=24	=24	=24	=24	=24	=24	=24	=24	=24
*	*	*tremolo	*	*	*	*	*	*	*	*
8F\L	.	16f\LL	.	16f/LL	.	4f/	.	.	.	.
.	.	16f\	.	16a/	.	.	.	.	.	.
8c\	.	16f\	.	16a/	.	.	.	.	.	.
.	.	16f\JJ	.	16a/JJ	.	.	.	.	.	.
*	*	*Xtremolo	*	*	*	*	*	*	*	*
8A\	.	16f\LL	.	16a\LL	.	8r	.	.	.	.
.	.	16a\	.	16cc\	.	.	.	.	.	.
8F\J	.	16a\	.	16cc\	.	16r	.	.	.	.
.	.	16a\JJ	.	16cc\JJ	.	16ccc\	.	.	.	.
=25	=25	=25	=25	=25	=25	=25	=25	=25	=25	=25
*	*	*tremolo	*	*tremolo	*	*	*	*	*	*
8C\L	.	16b-\LL	.	16cc\LL	.	(4ccc\	.	[2ccc\	.	[2ccc\
.	.	16b-\	.	16cc\	.	.	.	.	.	.
8B-\	.	16b-\	.	16cc\	.	.	.	.	.	.
.	.	16b-\JJ	.	16cc\JJ	.	.	.	.	.	.
8G\	.	16b-\LL	.	16cc\LL	.	8een\)	.	.	.	.
.	.	16b-\	.	16cc\	.	.	.	.	.	.
8B-\J	.	16b-\	.	16cc\	.	16r	.	.	.	.
!	!	!	!	!	!	!	!LO:DY:a:rj:t=p&colon;	!	!	!
.	.	16b-\JJ	.	16cc\JJ	.	16ee\	p	.	.	.
!	!	!	!	!	!	!LO:LB:g=original	!	!LO:LB:g=original	!	!
=26	=26	=26	=26	=26	=26	=26	=26	=26	=26	=26
8C\L	.	16a\LL	.	16cc\LL	.	(16ee-\LL	.	2ccc\_	.	2ccc\_
.	.	16a\	.	16cc\	.	16ff\J)	.	.	.	.
8A\	.	16a\	.	16cc\	.	8cc\J	.	.	.	.
.	.	16a\JJ	.	16cc\JJ	.	.	.	.	.	.
8F\	.	16a\LL	.	16cc\LL	.	8r	.	.	.	.
.	.	16a\	.	16cc\	.	.	.	.	.	.
8A\J	.	16a\	.	16cc\	.	16r	f	.	.	.
.	.	16a\JJ	.	16cc\JJ	.	16ccc\	.	.	.	.
=27	=27	=27	=27	=27	=27	=27	=27	=27	=27	=27
8C\L	.	16b-\LL	.	16cc\LL	.	4ccc\	.	2ccc\_	.	2ccc\_
.	.	16b-\	.	16cc\	.	.	.	.	.	.
8B-\	.	16b-\	.	16cc\	.	.	.	.	.	.
.	.	16b-\JJ	.	16cc\JJ	.	.	.	.	.	.
8G\	.	16b-\LL	.	16cc\LL	.	8een\	.	.	.	.
.	.	16b-\	.	16cc\	.	.	.	.	.	.
8B-\J	.	16b-\	.	16cc\	.	16r	.	.	.	.
!	!	!	!	!	!	!	!LO:DY:a:rj	!	!	!
.	.	16b-\JJ	.	16cc\JJ	.	16ee\	p	.	.	.
=28	=28	=28	=28	=28	=28	=28	=28	=28	=28	=28
8C\L	.	16a\LL	.	16cc\LL	.	16ee-\LL	.	4.ccc\]	.	4.ccc\]
.	.	16a\	.	16cc\	.	16ff\J	.	.	.	.
8A\	.	16a\	.	16cc\	.	8cc\J	.	.	.	.
.	.	16a\JJ	.	16cc\JJ	.	.	.	.	.	.
*	*	*	*	*Xtremolo	*	*	*	*	*	*
8F\	.	16a\LL	.	16cc\LL	.	8r	.	.	.	.
.	.	16a\	.	16cc\	.	.	.	.	.	.
8A\J	.	16a\	.	16cc\	.	16r	.	8r	.	8r
.	.	16a\JJ	.	16f\JJ	.	16a/	.	.	.	.
*	*	*Xtremolo	*	*	*	*	*	*	*	*
!	!	!LO:LB:g=original	!	!	!	!	!	!	!	!
=29	=29	=29	=29	=29	=29	=29	=29	=29	=29	=29
2r	.	2r	.	(16g'/LL	.	(16b-'\LL	.	0r	.	0r
.	.	.	.	16a'/	.	16cc'\	.	.	.	.
.	.	.	.	16b-'/	.	16dd'\	.	.	.	.
.	.	.	.	16cc'/JJ)	.	16een'\JJ	.	.	.	.
.	.	.	.	(16dd'\LL	.	16ff'\LL)	.	.	.	.
.	.	.	.	16een'\	.	16gg'\	.	.	.	.
.	.	.	.	16ff'\	.	16aa'\	.	.	.	.
.	.	.	.	16gg'\JJ)	.	16bb-'\JJ	.	.	.	.
=30	=30	=30	=30	=30	=30	=30	=30	=30	=30	=30
8r	.	8r	.	16aa\LL	.	(16ccc\LL	.	.	.	.
.	.	.	.	16ff\J	.	16aa\J)|	.	.	.	.
16r	.	16r	.	8aa\J	.	8ccc\J|	.	.	.	.
16F\	.	16a\	.	.	.	.	.	.	.	.
16.En\LL	.	16.g\LL	.	8r	.	8r	.	.	.	.
32D\K	.	32f\K	.	.	.	.	.	.	.	.
16.C\	.	16.e-\	.	16r	.	16r	.	.	.	.
!	!	!	!	!	!	!	!LO:DY:a:rj	!	!	!
.	.	.	.	16f/	.	16dd\	f	.	.	.
32BB-\JJk	.	32f\JJk	.	.	.	.	.	.	.	.
!LO:LB:g=original	!	!	!	!LO:LB:g=original	!	!	!	!	!	!
=31	=31	=31	=31	=31	=31	=31	=31	=31	=31	=31
!	!LO:DY:a:t=Pia	!	!	!	!	!	!	!	!	!
8AA/L	p	8f\L	.	8f/	.	8cc\L	.	.	.	.
.	.	.	.	.	.	8qqee-/	.	.	.	.
8BB-/	.	8B-\	.	4f/	.	(16dd\L	.	.	.	.
.	.	.	.	.	.	32cc\L	.	.	.	.
.	.	.	.	.	.	32b-\JJJ)	.	.	.	.
8C/	.	8c\	.	.	.	8a/L	.	.	.	.
8C/J	.	8c\J	.	8en/	.	8gW/J	.	.	.	.
=32	=32	=32	=32	=32	=32	=32	=32	=32	=32	=32
8F\L	.	4f\	.	(16f/LL	.	(4f/	.	.	.	.
.	.	.	.	16a/)	.	.	.	.	.	.
8F\	.	.	.	(16f/	.	.	.	.	.	.
.	.	.	.	16a/JJ)	.	.	.	.	.	.
8F\	.	4a\	.	(16f/LL	.	8ff\)	.	.	.	.
.	.	.	.	16a/)	.	.	.	.	.	.
8F\J	.	.	.	(16f/	.	16r	.	.	.	.
!	!	!	!	!	!	!	!LO:DY:a:t=p&colon;	!	!	!
.	.	.	.	16a/JJ)	.	16ee-X\	p	.	.	.
=33	=33	=33	=33	=33	=33	=33	=33	=33	=33	=33
8F\L	.	4a\	.	(16f/LL	.	(4ee-\	.	1r	.	1r
.	.	.	.	16cc/)	.	.	.	.	.	.
8F\	.	.	.	(16f/	.	.	.	.	.	.
.	.	.	.	16cc/JJ)	.	.	.	.	.	.
8F\	.	[4b-\	.	(16f/LL	.	8dd\)	.	.	.	.
.	.	.	.	16b-/)	.	.	.	.	.	.
8F\J	.	.	.	(16f/	.	16r	.	.	.	.
!	!	!	!	!	!	!	!LO:DY:a	!	!	!
.	.	.	.	16b-/JJ)	.	16een\	f	.	.	.
!	!	!	!	!	!	!LO:LB:g=original	!	!	!	!
=34	=34	=34	=34	=34	=34	=34	=34	=34	=34	=34
!	!	!	!	!	!	!LO:SIC:v:s=4een\	!	!	!	!
8F\L	.	4b-\]	.	(16g/LL	.	4ee-\	.	.	.	.
.	.	.	.	16b-/)	.	.	.	.	.	.
8F\	.	.	.	(16g/	.	.	.	.	.	.
.	.	.	.	16b-/JJ)	.	.	.	.	.	.
8F\	.	[4a\	.	(16f/LL	.	8ff\	.	.	.	.
.	.	.	.	16a/)	.	.	.	.	.	.
8F\J	.	.	.	(16f/	.	16r	.	.	.	.
!	!	!	!	!	!	!	!LO:DY:a:rj:t=p&colon;	!	!	!
.	.	.	.	16cc/JJ)	.	16ee-X\	p	.	.	.
=35	=35	=35	=35	=35	=35	=35	=35	=35	=35	=35
8F\L	.	4a\]	.	16f/LL	.	(4ee-\	.	2r	.	2r
.	.	.	.	16cc/	.	.	.	.	.	.
8F\	.	.	.	16f/	.	.	.	.	.	.
.	.	.	.	16cc/JJ	.	.	.	.	.	.
!	!	!LO:TX:t=P:problem:mixed beam	!	!	!	!	!	!	!	!
8F\	.	8b-\L	.	16f/LL	.	8dd\)	.	.	.	.
.	.	.	.	16b-/	.	.	.	.	.	.
8F\J	.	8B-/J	.	16f/	.	16r	.	.	.	.
.	.	.	.	16B-/JJ	.	16en/	.	.	.	.
=36	=36	=36	=36	=36	=36	=36	=36	=36	=36	=36
!	!	!	!	!	!	!LO:SIC:v:s=4en/	!	!LO:N:vis=2	!	!LO:N:vis=2
4.F\	.	4B-/	.	4B-/	.	4e-/	.	4r	.	4r
.	.	8A/	.	8B-/	.	8f/	.	8ryy	.	8ryy
!	!	!	!	!	!	!LO:N:vis=8	!	!	!	!
16ryy	.	16r	.	16r	.	16r	.	16ryy	.	16ryy
!	!	!	!	!	!	!	!	!	!	!LO:LB:g=original
=:|!|:	=:|!|:	=:|!|:	=:|!|:	=:|!|:	=:|!|:	=:|!|:	=:|!|:	=:|!|:	=:|!|:	=:|!|:
*>B	*	*>B	*	*>B	*	*>B	*	*>B	*	*>B
!LO:N:vis=8	!	!	!	!	!	!	!	!	!	!
16r	.	16r	.	16A/	.	16f/	.	16r	.	16r
=37	=37	=37	=37	=37	=37	=37	=37	=37	=37	=37
8r	.	8r	.	(4A/	.	(4f/	.	0r	.	0r
!LO:TX:t=P:problem:mixed beam	!	!LO:TX:t=P:problem:mixed beam	!	!	!	!	!	!	!	!
8F\L	.	8f\L	.	.	.	.	.	.	.	.
8FF/	.	8F/	.	8f/)	.	8a/)	.	.	.	.
8F\J	.	8f\J	.	16r	.	16r	.	.	.	.
.	.	.	.	16a/	.	16cc\	.	.	.	.
=38	=38	=38	=38	=38	=38	=38	=38	=38	=38	=38
8r	.	8r	.	8.a/L	.	(4cc\	.	.	.	.
!LO:TX:t=P:problem:mixed beam	!	!LO:TX:t=P:problem:mixed beam	!	!	!	!	!	!	!	!
8F\L	.	8f\L	.	.	.	.	.	.	.	.
.	.	.	.	16cc/Jk	.	.	.	.	.	.
8FF/	.	8F/	.	8a/	.	8ff\)	.	.	.	.
8F\J	.	8f\J	.	16r	.	16r	.	.	.	.
.	.	.	.	16g/	.	16b-\	.	.	.	.
!	!	!	!	!LO:LB:g=original	!	!	!	!	!	!
=39	=39	=39	=39	=39	=39	=39	=39	=39	=39	=39
8r	.	8r	.	(4g/	.	(4b-\	.	.	.	.
8C/L	.	8c\L	.	.	.	.	.	.	.	.
8CC/	.	8c\	.	16en/)	.	16g\)	.	.	.	.
.	.	.	.	16r	.	16r	.	.	.	.
.	.	.	.	8qqcc/	.	8qa/	.	.	.	.
8C/J	.	8c\J	.	(16b-\LL	.	16g/LL	.	.	.	.
.	.	.	.	32a\L	.	32f/L	.	.	.	.
.	.	.	.	32g\JJJ)	.	32en/JJJ	.	.	.	.
=40	=40	=40	=40	=40	=40	=40	=40	=40	=40	=40
!	!	!	!	!	!LO:DY:a	!	!LO:DY:a:t=f&colon;	!	!	!
.	.	.	.	8qqg/	f	8qe-/	f	.	.	.
!	!LO:DY:a:t=f&colon;	!	!	!	!	!	!	!	!	!
8F\L	f	8f\L	.	8f/L	.	8f/L	.	.	.	.
(32c\LL	.	(32cc\LL	.	(32cc/LL	.	(32cc/LL	.	.	.	.
32B-\	.	32b-\	.	32b-/	.	32b-/	.	.	.	.
32A\	.	32a\	.	32a/	.	32a/)	.	.	.	.
32G\JJJ)	.	32g\JJJ)	.	32g/JJJ)	.	32g/JJJ	.	.	.	.
!	!	!	!	!LO:N:vis=8.	!	!	!	!	!	!
8F\L	.	8f\L	.	8f/	.	8f/	.	.	.	.
(32F\LL	.	(32f\LL	.	16r	.	16r	.	.	.	.
32E-\	.	32e-\	.	.	.	.	.	.	.	.
!	!	!	!	!	!	!	!LO:DY:a:rj:t=p&colon;	!	!	!
32D\	.	32d\	.	16d/	.	16b-\	p	.	.	.
32C\JJJ)	.	32c\JJJ)	.	.	.	.	.	.	.	.
!	!	!LO:PB:g=original	!	!	!	!LO:LB:g=original	!	!	!	!
=41	=41	=41	=41	=41	=41	=41	=41	=41	=41	=41
!LO:TX:t=P:problem:mixed beam	!LO:DY:a:t=p&colon;	!LO:TX:t=P:problem:mixed beam	!	!	!	!	!	!	!	!
8BB-/L	p	8B-/L	.	(4d/	.	(4b-\	.	0r	.	0r
8B-\	.	8b-\	.	.	.	.	.	.	.	.
8BB-/	.	8B-/	.	8b-/)	.	8dd\)	.	.	.	.
8B-\J	.	8b-\J	.	16r	.	16r	.	.	.	.
.	.	.	.	16dd\	.	16ff\	.	.	.	.
=42	=42	=42	=42	=42	=42	=42	=42	=42	=42	=42
8r	.	8r	.	(8.dd\L	.	(4ff\	.	.	.	.
!LO:TX:t=P:problem:mixed beam	!	!LO:TX:t=P:problem:mixed beam	!	!	!	!	!	!	!	!
8B-\L	.	8b-\L	.	.	.	.	.	.	.	.
.	.	.	.	16ff\Jk)	.	.	.	.	.	.
8BB-/	.	8B-/	.	8dd\	.	8bb-\)	.	.	.	.
8B-\J	.	8b-\J	.	16r	.	16r	.	.	.	.
.	.	.	.	16cc\	.	16ee-\	.	.	.	.
!LO:PB:g=original	!	!	!	!	!	!	!	!	!	!
=43	=43	=43	=43	=43	=43	=43	=43	=43	=43	=43
8r	.	8r	.	(4cc\	.	(4ee-\	.	.	.	.
!LO:TX:t=P:problem:mixed beam	!	!LO:TX:t=P:problem:mixed beam	!	!	!	!	!	!	!	!
8F\L	.	8f\L	.	.	.	.	.	.	.	.
8FF/	.	8F/	.	16a\)	.	16cc\)	.	.	.	.
.	.	.	.	16r	.	16r	.	.	.	.
.	.	.	.	8qqf/	.	8qdd/	.	.	.	.
8F\J	.	8f\J	.	16e-/LL	.	16cc\LL	.	.	.	.
.	.	.	.	(32d/L	.	32b-\L	.	.	.	.
.	.	.	.	32c/JJJ)	.	32a\JJJ	.	.	.	.
=44	=44	=44	=44	=44	=44	=44	=44	=44	=44	=44
!	!LO:DY:a:rj:t=f&colon;	!	!	!	!	!	!LO:DY:a:rj	!	!	!
8B-\L	f	8b-\L	.	8B-/L	.	8b-/L	f	.	.	.
(32F\LL	.	(32f\LL	.	(32f/LL	.	32f/LL	.	.	.	.
32E-\	.	32e-\	.	32e-/	.	32e-/	.	.	.	.
32D\	.	32d\	.	32d/	.	32d/	.	.	.	.
32C\JJJ)	.	32c\JJJ)	.	32c/JJJ)	.	32c/JJJ	.	.	.	.
!LO:TX:t=P:problem:mixed beam	!	!LO:TX:t=P:problem:mixed beam	!	!	!	!	!	!	!	!
8BB-/L	.	8B-/L	.	8B-/	.	8B-/	.	.	.	.
8B-\J	.	8b-\J	.	16r	.	16r	.	.	.	.
!	!	!	!	!	!	!	!LO:DY:a:rj	!	!	!
.	.	.	.	16dd\	.	16ff\	p	.	.	.
=45	=45	=45	=45	=45	=45	=45	=45	=45	=45	=45
8r	.	8r	.	(4dd\	.	(4ff\	.	0r	.	0r
!LO:TX:t=P:problem:mixed beam	!	!LO:TX:t=P:problem:mixed beam	!	!	!	!	!	!	!	!
8B-\L	.	8b-\L	.	.	.	.	.	.	.	.
!	!	!	!	!	!	!LO:N:vis=16	!	!	!	!
8BB-/	.	8B-/	.	8b-\)	.	8dd\)	.	.	.	.
8B-\J	.	8b-\J	.	16r	.	16r	.	.	.	.
.	.	.	.	16dd\	.	16ff\	.	.	.	.
!	!	!	!	!LO:LB:g=original	!	!	!	!	!	!
=46	=46	=46	=46	=46	=46	=46	=46	=46	=46	=46
8r	.	8r	.	(4dd\	.	(4ff\	.	.	.	.
!LO:TX:t=P:problem:mixed beam	!	!LO:TX:t=P:problem:mixed beam	!	!	!	!	!	!	!	!
8BB-/L	.	8b-\L	.	.	.	.	.	.	.	.
8B-\	.	8B-/	.	8b-\)	.	8b-\)	.	.	.	.
8BB-/J	.	8b-\J	.	16r	.	16r	.	.	.	.
!	!	!	!	!	!	!	!LO:DY:a:rj:t=f&colon;	!	!	!
.	.	.	.	16ff\	.	16aa-X\	f	.	.	.
=47	=47	=47	=47	=47	=47	=47	=47	=47	=47	=47
!	!	!	!	!	!	!LO:SIC:v:s=4aa-\	!	!	!	!
4BBn/	.	4Bn/	.	4ff\	.	4aa\	.	.	.	.
!	!	!	!	!	!	!	!LO:DY:a:t=p&colon;	!	!	!
8r	.	8r	.	(16ee-\LL	.	(16gg\LL	p	.	.	.
.	.	.	.	16dd\)	.	16ff\)	.	.	.	.
8GG/	.	8G/	.	(16cc\	.	(16ee-\	.	.	.	.
.	.	.	.	16bn\JJ)	.	16dd\JJ)	.	.	.	.
=48	=48	=48	=48	=48	=48	=48	=48	=48	=48	=48
(4C/	.	(4c\	.	4cc\	.	(16ee-\LL	.	.	.	.
.	.	.	.	.	.	32dd\L	.	.	.	.
.	.	.	.	.	.	32cc\JJJ)	.	.	.	.
.	.	.	.	.	.	4cc\	.	.	.	.
4E-/)	.	4e-\)	.	4g/	.	.	.	.	.	.
.	.	.	.	.	.	(16cc\LL	.	.	.	.
.	.	.	.	.	.	16cc#X\JJ)	.	.	.	.
!	!	!	!	!	!	!LO:LB:g=original	!	!	!	!
=49	=49	=49	=49	=49	=49	=49	=49	=49	=49	=49
(4F\	.	4f\	.	4a-X/	.	8.dd\L	.	0r	.	0r
.	.	.	.	.	.	(32ee-\LL	.	.	.	.
.	.	.	.	.	.	32ff\JJJ)	.	.	.	.
8G\L)	.	8g\L	.	8bn/L	.	(16ff\LL	.	.	.	.
.	.	.	.	.	.	16ee-\)	.	.	.	.
8Bn\J	.	8bn\J	.	8g/J	.	(16ee-\	.	.	.	.
.	.	.	.	.	.	16dd\JJ)	.	.	.	.
=50	=50	=50	=50	=50	=50	=50	=50	=50	=50	=50
4c\	.	4cc\	.	(16cc\LL	.	16ee-\LL	.	.	.	.
.	.	.	.	32bn\L	.	(32dd\L	.	.	.	.
.	.	.	.	32cc\JJJ)	.	32cc\JJJ)	.	.	.	.
.	.	.	.	4cc\	.	4cc\	.	.	.	.
4E-\	.	4e-\	.	.	.	.	f	.	.	.
.	.	.	.	8cc\	.	16cc\LL	.	.	.	.
.	.	.	.	.	.	16aa-X\JJ	.	.	.	.
=51	=51	=51	=51	=51	=51	=51	=51	=51	=51	=51
!	!	!	!	!	!	!LO:SIC:v:s=4aa-\	!	!	!	!
4F\	.	4f\	.	4.bn\	.	4aa\	.	.	.	.
!	!	!	!	!	!	!	!LO:DY:a:rj	!	!	!
8G\L	.	8g\L	.	.	.	(16gg\LL	p	.	.	.
.	.	.	.	.	.	16ff\)	.	.	.	.
8Bn\J	.	8bn\J	.	8g/	.	(16ee-\	.	.	.	.
.	.	.	.	.	.	16dd\JJ)	.	.	.	.
=52	=52	=52	=52	=52	=52	=52	=52	=52	=52	=52
!LO:TX:t=P:problem:mixed beam	!	!LO:TX:t=P:problem:mixed beam	!	!	!	!	!	!	!	!
8c\L	.	8cc\L	.	16cc\LL	.	(16ee-\LL	.	.	.	.
.	.	.	.	(32bn\L	.	32dd\L	.	.	.	.
.	.	.	.	32cc\JJJ)	.	32cc\JJJ)	.	.	.	.
8C/	.	8c/	.	4cc\	.	4cc\	.	.	.	.
8c\	.	8cc\	.	.	.	.	.	.	.	.
!LO:SIC:v:s=8B-\J	!	!	!	!	!	!	!	!	!	!
8B\J	.	8b-X\J	.	16r	.	16r	.	.	.	.
.	.	.	.	16cc\	.	16ee-\	.	.	.	.
=53	=53	=53	=53	=53	=53	=53	=53	=53	=53	=53
!LO:TX:t=P:problem:mixed beam	!	!LO:TX:t=P:problem:mixed beam	!	!	!	!	!	!	!	!
8A\L	.	8a\L	.	(4cc\	.	(4ee-\	.	0r	.	0r
8F\	.	8f\	.	.	.	.	.	.	.	.
8FF/	.	8F/	.	8a\)	.	8cc\)	.	.	.	.
8F\J	.	8f\J	.	16r	.	16r	.	.	.	.
.	.	.	.	16cc\	.	16ee-\	.	.	.	.
=54	=54	=54	=54	=54	=54	=54	=54	=54	=54	=54
8r	.	8r	.	(4cc\	.	(4ee-\	.	.	.	.
!LO:TX:t=P:problem:mixed beam	!	!LO:TX:t=P:problem:mixed beam	!	!	!	!	!	!	!	!
8F\L	.	8f\L	.	.	.	.	.	.	.	.
8FF/	.	8F/	.	8f/)	.	8a\)	.	.	.	.
8F\J	.	8f\J	.	16r	.	16r	.	.	.	.
!	!	!	!	!	!	!	!LO:DY:a:rj	!	!	!
.	.	.	.	16ee-\	.	16gg\	f	.	.	.
!	!	!	!	!LO:LB:g=original	!	!	!	!	!	!
=55	=55	=55	=55	=55	=55	=55	=55	=55	=55	=55
4A\	.	4a\	.	4ee-\	.	4gg\	.	.	.	.
!	!	!	!	!	!	!	!LO:DY:a:rj	!	!	!
8r	.	8r	.	(16dd\LL	.	(16ff\LL	p	.	.	.
.	.	.	.	16cc\)	.	16ee-\)	.	.	.	.
8F\	.	8f\	.	(16b-\	.	(16dd\	.	.	.	.
.	.	.	.	16a\JJ)	.	16cc\JJ)	.	.	.	.
!LO:LB:g=original	!	!	!	!	!	!	!	!	!	!
=56	=56	=56	=56	=56	=56	=56	=56	=56	=56	=56
4B-\	.	4b-\	.	4b-\	.	16dd\LL	.	.	.	.
.	.	.	.	.	.	32cc\L	.	.	.	.
.	.	.	.	.	.	32b-\JJJ	.	.	.	.
.	.	.	.	.	.	(4b-\	.	.	.	.
(4D/	.	4d\	.	4f/	.	.	.	.	.	.
.	.	.	.	.	.	8bn\)	.	.	.	.
!	!	!LO:LB:g=original	!	!	!	!	!	!	!	!
=57	=57	=57	=57	=57	=57	=57	=57	=57	=57	=57
4E-\)	.	4e-\	.	4g/	.	(8.cc\L	.	0r	.	0r
.	.	.	.	.	.	32dd\LL	.	.	.	.
.	.	.	.	.	.	32ee-\JJJ)	.	.	.	.
8F\L	.	8f\L	.	(8a/L	.	(16ee-\LL	.	.	.	.
.	.	.	.	.	.	16dd\)	.	.	.	.
8A\J	.	8a\J	.	8f/J)	.	(16dd\	.	.	.	.
.	.	.	.	.	.	16cc\JJ)	.	.	.	.
!	!	!	!	!	!	!LO:LB:g=original	!	!	!	!
=58	=58	=58	=58	=58	=58	=58	=58	=58	=58	=58
4B-\	.	4b-\	.	4b-\	.	(16dd\LL	.	.	.	.
.	.	.	.	.	.	32cc\L	.	.	.	.
.	.	.	.	.	.	32b-\JJJ)	.	.	.	.
.	.	.	.	.	.	(4b-\	.	.	.	.
(4D/	.	4d\	.	4f/	.	.	.	.	.	.
.	.	.	.	.	.	8bn\)	.	.	.	.
=59	=59	=59	=59	=59	=59	=59	=59	=59	=59	=59
4E-\)	.	4e-\	.	4g/	.	(8.cc\L	.	.	.	.
.	.	.	.	.	.	32dd\LL	.	.	.	.
.	.	.	.	.	.	32ee-\JJJ)	.	.	.	.
8F\L	.	8f\L	.	8a/L	.	(16ee-\LL	.	.	.	.
.	.	.	.	.	.	16dd\)	.	.	.	.
8A\J	.	8a\J	.	8f/J	.	(16dd\	.	.	.	.
.	.	.	.	.	.	16cc\JJ)	.	.	.	.
=60	=60	=60	=60	=60	=60	=60	=60	=60	=60	=60
*	*	*	*	*tremolo	*	*	*	*	*	*
8B-\L	.	8b-\L	.	16f/LL	.	8.ddm\L	.	.	.	.
.	.	.	.	16f/	.	.	.	.	.	.
8F\	.	8f\	.	16f/	.	.	.	.	.	.
.	.	.	.	16f/JJ	.	(32cc\LL	.	.	.	.
.	.	.	.	.	.	32dd\JJJ)	.	.	.	.
8c\	.	8cc\	.	16f/LL	.	8.ee-M\L	.	.	.	.
.	.	.	.	16f/	.	.	.	.	.	.
8F\J	.	8f\J	.	16f/	.	.	.	.	.	.
.	.	.	.	16f/JJ	.	(32dd\LL	.	.	.	.
.	.	.	.	.	.	32ee-\JJJ)	.	.	.	.
=61	=61	=61	=61	=61	=61	=61	=61	=61	=61	=61
8d\L	.	8dd\L	.	16f/LL	.	8.ff\L	.	0r	.	0r
.	.	.	.	16f/	.	.	.	.	.	.
8F\	.	8f\	.	16f/	.	.	.	.	.	.
.	.	.	.	16f/JJ	.	16aa\Jk	.	.	.	.
8c\	.	8cc\	.	16f/LL	.	8.aam\L	.	.	.	.
.	.	.	.	16f/	.	.	.	.	.	.
8F\J	.	8f\J	.	16f/	.	.	.	.	.	.
.	.	.	.	16f/JJ	.	32gg\LL	.	.	.	.
.	.	.	.	.	.	32aa\JJJ	.	.	.	.
=62	=62	=62	=62	=62	=62	=62	=62	=62	=62	=62
!	!	!LO:TX:t=P:problem:takty 62-63 zapisane repetycją	!	!	!	!	!	!	!	!
8B-\L	.	8b-\Lyy	.	16f/LL	.	16.bb-\LL	.	.	.	.
.	.	.	.	16f/	.	.	.	.	.	.
.	.	.	.	.	.	32dd\JJk	.	.	.	.
8F\	.	8f\yy	.	16f/	.	16.ddm\LL	.	.	.	.
.	.	.	.	16f/JJ	.	.	.	.	.	.
!	!	!	!	!	!	!LO:N:vis=32	!	!	!	!
.	.	.	.	.	.	(64cc\L	.	.	.	.
!	!	!	!	!	!	!LO:N:vis=32	!	!	!	!
.	.	.	.	.	.	64dd\JJJ)	.	.	.	.
8c\	.	8cc\yy	.	16f/LL	.	16.ee-\LL	.	.	.	.
.	.	.	.	16f/	.	.	.	.	.	.
.	.	.	.	.	.	32ee-\JJk	.	.	.	.
8F\J	.	8f\Jyy	.	16f/	.	16.ee-M\L	.	.	.	.
.	.	.	.	16f/JJ	.	.	.	.	.	.
!	!	!	!	!	!	!LO:N:vis=32	!	!	!	!
.	.	.	.	.	.	(64dd\	.	.	.	.
!	!	!	!	!	!	!LO:N:vis=32	!	!	!	!
.	.	.	.	.	.	64ee-\J)	.	.	.	.
=63	=63	=63	=63	=63	=63	=63	=63	=63	=63	=63
8d\L	.	8dd\Lyy	.	16f/LL	.	8.ff\L	.	.	.	.
.	.	.	.	16f/	.	.	.	.	.	.
8F\	.	8f\yy	.	16f/	.	.	.	.	.	.
.	.	.	.	16f/JJ	.	16aa\Jk	.	.	.	.
8c\	.	8cc\yy	.	16ee-\LL	.	8.aam\L	.	.	.	.
.	.	.	.	16ee-\	.	.	.	.	.	.
8F\J	.	8f\Jyy	.	16ee-\	.	.	.	.	.	.
.	.	.	.	16ee-\JJ	.	32gg\LL	.	.	.	.
.	.	.	.	.	.	32aa\JJJ	.	.	.	.
*	*	*	*	*Xtremolo	*	*	*	*	*	*
=64	=64	=64	=64	=64	=64	=64	=64	=64	=64	=64
4B-\	.	4b-\	.	16dd\LL	.	16bb-\LL	.	.	.	.
.	.	.	.	16b-\	.	16ff\JJ	.	.	.	.
.	.	.	.	16b-\	.	(4ff\	.	.	.	.
.	.	.	.	16b-\JJ	.	.	.	.	.	.
*	*	*	*	*tremolo	*	*	*	*	*	*
4D\	.	4d\	.	16b-\LL	.	.	.	.	.	.
.	.	.	.	16b-\	.	.	.	.	.	.
.	.	.	.	16b-\	.	8ff#X\)	.	.	.	.
.	.	.	.	16b-\JJ	.	.	.	.	.	.
=65	=65	=65	=65	=65	=65	=65	=65	=65	=65	=65
*2\right	*	*2\right	*	*	*	*	*	*	*	*
*tremolo	*	*tremolo	*	*	*	*	*	*	*	*
8E-\L	.	8e-\L	.	16b-\LL	.	(16ff#X\LL	.	0r	.	0r
.	.	.	.	16b-\	.	16gg\JJ)	.	.	.	.
8E-\	.	8e-\	.	16b-\	.	4gg\	.	.	.	.
.	.	.	.	16b-\JJ	.	.	.	.	.	.
8E-\	.	8e-\	.	16b-\LL	.	.	.	.	.	.
.	.	.	.	16b-\	.	.	.	.	.	.
.	.	.	.	.	.	8qff#/	.	.	.	.
8E-\J	.	8e-\J	.	16b-\	.	16.ee-\LL	.	.	.	.
.	.	.	.	16b-\JJ	.	.	.	.	.	.
.	.	.	.	.	.	32dd\JJk	.	.	.	.
!	!	!	!	!	!	!LO:LB:g=original	!	!	!	!
=66	=66	=66	=66	=66	=66	=66	=66	=66	=66	=66
.	.	.	.	.	.	8qqdd/	.	.	.	.
8E-\L	.	8e-\L	.	16b-\LL	.	8.cc\L	.	.	.	.
.	.	.	.	16b-\	.	.	.	.	.	.
8E-\	.	8e-\	.	16b-\	.	.	.	.	.	.
.	.	.	.	16b-\JJ	.	16dd\Jk	.	.	.	.
.	.	.	.	.	.	8qqdd/	.	.	.	.
8E-\	.	8e-\	.	16b-\LL	.	8.cc\L	.	.	.	.
.	.	.	.	16b-\	.	.	.	.	.	.
8E-\J	.	8e-\J	.	16b-\	.	.	.	.	.	.
.	.	.	.	16b-\JJ	.	16gg\Jk	.	.	.	.
*Xtremolo	*	*Xtremolo	*	*	*	*	*	*	*	*
=67	=67	=67	=67	=67	=67	=67	=67	=67	=67	=67
8E-\L	.	8e-\L	.	16b-\LL	.	8gg\L	.	.	.	.
.	.	.	.	16b-\	.	.	.	.	.	.
.	.	.	.	.	.	8qqff/	.	.	.	.
8E-\	.	8e-\	.	16b-\	.	16.ee-\L	.	.	.	.
.	.	.	.	16b-\JJ	.	.	.	.	.	.
.	.	.	.	.	.	32dd\JJk	.	.	.	.
.	.	.	.	.	.	8qqdd/	.	.	.	.
*	*	*	*	*Xtremolo	*	*	*	*	*	*
8E-\	.	8e-\	.	16b-\LL	.	8.cc\L	.	.	.	.
.	.	.	.	16b-\	.	.	.	.	.	.
8En\J	.	8en\J	.	16g\	.	.	.	.	.	.
.	.	.	.	16g\JJ	.	16b-\Jk	.	.	.	.
!	!	!	!	!LO:LB:g=original	!	!	!	!	!	!
=68	=68	=68	=68	=68	=68	=68	=68	=68	=68	=68
*	*	*	*	*tremolo	*	*	*	*	*	*
!LO:TX:t=P:problem:mixed beam	!	!LO:TX:t=P:problem:mixed beam	!	!	!	!	!	!	!	!
8F\L	.	8f\L	.	16f/LL	.	16a/LL	.	.	.	.
.	.	.	.	16f/	.	32g/L	.	.	.	.
.	.	.	.	.	.	32f/JJ	.	.	.	.
8FF/	.	8F/	.	16f/	.	8f/J	.	.	.	.
.	.	.	.	16f/JJ	.	.	.	.	.	.
8AA/	.	8A/	.	16f/LL	.	8r	.	.	.	.
.	.	.	.	16f/	.	.	.	.	.	.
8C/J	.	8c/J	.	16f/	.	16r	.	.	.	.
!	!	!	!	!	!	!	!LO:DY:a:t=f&colon;	!	!	!
.	.	.	.	16f/JJ	.	16ff\	f	.	.	.
=69	=69	=69	=69	=69	=69	=69	=69	=69	=69	=69
*	*	*tremolo	*	*	*	*	*	*	*	*
8F\L	.	8e-\L	.	16f/LL	.	(4ff\	.	[2ff\	.	[2ff\
.	.	.	.	16f/	.	.	.	.	.	.
8e-\	.	8e-\	.	16f/	.	.	.	.	.	.
.	.	.	.	16f/JJ	.	.	.	.	.	.
8c\	.	8e-\	.	16f/LL	.	8a\)	.	.	.	.
.	.	.	.	16f/	.	.	.	.	.	.
8e-\J	.	8e-\J	.	16f/	.	16r	.	.	.	.
!	!	!	!	!	!	!	!LO:DY:a:rj:t=p&colon;	!	!	!
.	.	.	.	16f/JJ	.	16a/	p	.	.	.
!LO:LB:g=original	!	!	!	!	!	!	!	!	!	!
=70	=70	=70	=70	=70	=70	=70	=70	=70	=70	=70
8F\L	.	8d\L	.	16f/LL	.	(16a/LL	.	2ff\_	.	2ff\_
.	.	.	.	16f/	.	16b-/J)	.	.	.	.
8d\	.	8d\	.	16f/	.	8f/J	.	.	.	.
.	.	.	.	16f/JJ	.	.	.	.	.	.
8B-\	.	8d\	.	16f/LL	.	8r	.	.	.	.
.	.	.	.	16f/	.	.	.	.	.	.
8d\J	.	8d\J	.	16f/	.	16r	.	.	.	.
!	!	!	!	!	!	!	!LO:DY:a:rj	!	!	!
.	.	.	.	16f/JJ	.	16ff\	f	.	.	.
=71	=71	=71	=71	=71	=71	=71	=71	=71	=71	=71
8F\L	.	8e-\L	.	16f/LL	.	(4ff\	.	2ff\_	.	2ff\_
.	.	.	.	16f/	.	.	.	.	.	.
8e-\	.	8e-\	.	16f/	.	.	.	.	.	.
.	.	.	.	16f/JJ	.	.	.	.	.	.
8c\	.	8e-\	.	16f/LL	.	8a/)	.	.	.	.
.	.	.	.	16f/	.	.	.	.	.	.
8e-\J	.	8e-\J	.	16f/	.	16r	.	.	.	.
!	!	!	!	!	!	!	!LO:DY:a:t=p&colon;	!	!	!
.	.	.	.	16f/JJ	.	16a/	p	.	.	.
=72	=72	=72	=72	=72	=72	=72	=72	=72	=72	=72
8F\L	.	8d\L	.	16f/LL	.	(16a/LL	.	4.ff\]	.	4.ff\]
.	.	.	.	16f/	.	16b-/J)	.	.	.	.
8d\	.	8d\	.	16f/	.	8f/J	.	.	.	.
.	.	.	.	16f/JJ	.	.	.	.	.	.
*	*	*	*	*Xtremolo	*	*	*	*	*	*
8B-\	.	8d\	.	16f/LL	.	8r	.	.	.	.
.	.	.	.	16f/	.	.	.	.	.	.
8d\J	.	8d\J	.	16f/	.	16r	.	8r	.	8r
.	.	.	.	16B-/JJ	.	16d/	.	.	.	.
*	*	*Xtremolo	*	*	*	*	*	*	*	*
=73	=73	=73	=73	=73	=73	=73	=73	=73	=73	=73
2r	.	2r	.	(16c'/LL	.	(16e-'/LL	.	0r	.	0r
.	.	.	.	16d'/	.	16f'/	.	.	.	.
.	.	.	.	16e-'/	.	16g'/	.	.	.	.
.	.	.	.	16f'/JJ)	.	16a'/JJ	.	.	.	.
.	.	.	.	(16g'/LL	.	16b-'/LL	.	.	.	.
.	.	.	.	16a'/	.	16cc'/	.	.	.	.
.	.	.	.	16b-'/	.	16dd'/	.	.	.	.
.	.	.	.	16cc'/JJ)	.	16ee-'/JJ)	.	.	.	.
=74	=74	=74	=74	=74	=74	=74	=74	=74	=74	=74
8r	.	8r	.	16dd\LL	.	16ff\LL|	.	.	.	.
.	.	.	.	16b-\J	.	16dd\J|	.	.	.	.
16r	.	16r	.	8dd\J	.	8ff\J	.	.	.	.
16B-\	.	16dd\	.	.	.	.	.	.	.	.
16.A\LL	.	16.cc\LL	.	8r	.	8r	.	.	.	.
32G\K	.	32b-\JJk	.	.	.	.	.	.	.	.
16.F\	.	16.a\LL	.	16r	.	16r	.	.	.	.
.	.	.	.	16b-\	.	16gg\	.	.	.	.
32E-\JJk	.	32b-\JJk	.	.	.	.	.	.	.	.
!	!	!LO:LB:g=original	!	!	!	!LO:LB:g=original	!	!	!	!
=75	=75	=75	=75	=75	=75	=75	=75	=75	=75	=75
!LO:TX:t=P:problem:mixed beam	!	!	!	!	!	!	!	!	!	!
8D\L	.	8b-\L	.	8b-\	.	8ff\L	.	.	.	.
.	.	.	.	.	.	8qqaa-X/	.	.	.	.
8E-\	.	8e-\	.	4b-\	.	(16gg\L	.	.	.	.
.	.	.	.	.	.	32ff\L	.	.	.	.
.	.	.	.	.	.	32ee-\JJJ)	.	.	.	.
8F\	.	8f\	.	.	.	8dd\L	.	.	.	.
8FF/J	.	8f\J	.	8a\	.	8ccM\J	.	.	.	.
!	!	!	!	!LO:LB:g=original	!	!	!	!	!	!
=76	=76	=76	=76	=76	=76	=76	=76	=76	=76	=76
!LO:TX:t=P:problem:mixed beam	!	!	!	!	!	!	!	!	!	!
8BB-/L	.	8f\L	.	16b-/LL	.	4b-\	.	.	.	.
.	.	.	.	16f/	.	.	.	.	.	.
8F\	.	8f\	.	16f/	.	.	.	.	.	.
.	.	.	.	16f/JJ	.	.	.	.	.	.
*	*	*	*	*tremolo	*	*	*	*	*	*
8D\	.	8f\	.	16f/LL	.	8r	.	.	.	.
.	.	.	.	16f/	.	.	.	.	.	.
8BB-\J	.	8e-\J	.	16f/	.	16r	.	.	.	.
.	.	.	.	16f/JJ	.	16ff\	.	.	.	.
=77	=77	=77	=77	=77	=77	=77	=77	=77	=77	=77
!LO:TX:t=P:problem:mixed beam	!	!	!	!	!	!	!	!	!	!
*	*	*tremolo	*	*	*	*	*	*	*	*
8FF/L	.	8e-\L	.	16f/LL	.	(4ff\	.	[2ff\	.	[2ff\
.	.	.	.	16f/	.	.	.	.	.	.
8e-\	.	8e-\	.	16f/	.	.	.	.	.	.
.	.	.	.	16f/JJ	.	.	.	.	.	.
8c\	.	8e-\	.	16f/LL	.	8a/)	.	.	.	.
.	.	.	.	16f/	.	.	.	.	.	.
8e-\J	.	8e-\J	.	16f/	.	16r	.	.	.	.
!	!	!	!	!	!	!	!LO:DY:a:rj:t=p&colon;	!	!	!
.	.	.	.	16f/JJ	.	16a/	p	.	.	.
=78	=78	=78	=78	=78	=78	=78	=78	=78	=78	=78
8F\L	.	8d\L	.	16f/LL	.	(16a/LL	.	2ff\_	.	2ff\_
.	.	.	.	16f/	.	16b-/J)	.	.	.	.
8d\	.	8d\	.	16f/	.	8f/J	.	.	.	.
.	.	.	.	16f/JJ	.	.	.	.	.	.
8B-\	.	8d\	.	16f/LL	.	8r	.	.	.	.
.	.	.	.	16f/	.	.	.	.	.	.
8d\J	.	8d\J	.	16f/	.	16r	.	.	.	.
!	!	!	!	!	!	!	!LO:DY:a:rj	!	!	!
.	.	.	.	16f/JJ	.	16ff\	f	.	.	.
=79	=79	=79	=79	=79	=79	=79	=79	=79	=79	=79
8F\L	.	8e-\L	.	16f/LL	.	(4ff\	.	2ff\_	.	2ff\_
.	.	.	.	16f/	.	.	.	.	.	.
8e-\	.	8e-\	.	16f/	.	.	.	.	.	.
.	.	.	.	16f/JJ	.	.	.	.	.	.
8c\	.	8e-\	.	16f/LL	.	8a/)	.	.	.	.
.	.	.	.	16f/	.	.	.	.	.	.
8e-\J	.	8e-\J	.	16f/	.	16r	.	.	.	.
!	!	!	!	!	!	!	!LO:DY:a:rj:t=p&colon;	!	!	!
.	.	.	.	16f/JJ	.	16a/	p	.	.	.
=80	=80	=80	=80	=80	=80	=80	=80	=80	=80	=80
8F\L	.	8d\L	.	16f/LL	.	(16a/LL	.	4.ff\]	.	4.ff\]
.	.	.	.	16f/	.	16b-/J)	.	.	.	.
8d\	.	8d\	.	16f/	.	8f/J	.	.	.	.
.	.	.	.	16f/JJ	.	.	.	.	.	.
*	*	*	*	*Xtremolo	*	*	*	*	*	*
8B-\	.	8d\	.	16f/LL	.	8r	.	.	.	.
.	.	.	.	16f/	.	.	.	.	.	.
8d\J	.	8d\J	.	16f/	.	16r	.	8r	.	8r
.	.	.	.	16B-/JJ	.	16d/	.	.	.	.
*	*	*Xtremolo	*	*	*	*	*	*	*	*
=81	=81	=81	=81	=81	=81	=81	=81	=81	=81	=81
2r	.	2r	.	(16c'/LL	.	16e-'/LL	.	0r	.	0r
.	.	.	.	16d'/	.	16f'/	.	.	.	.
.	.	.	.	16e-'/	.	(16g'/	.	.	.	.
.	.	.	.	16f'/JJ)	.	16a'/JJ	.	.	.	.
.	.	.	.	(16g'/LL	.	16b-'/LL	.	.	.	.
.	.	.	.	16a'/	.	16cc'/)	.	.	.	.
.	.	.	.	16b-'/	.	16dd'/	.	.	.	.
.	.	.	.	16cc'/JJ)	.	16ee-'/JJ	.	.	.	.
=82	=82	=82	=82	=82	=82	=82	=82	=82	=82	=82
8r	.	8r	.	(16dd\LL	.	16ff\LL	.	.	.	.
.	.	.	.	16b-\J)	.	16dd\J	.	.	.	.
!LO:N:vis=8	!	!	!	!	!	!	!	!	!	!
16r	.	16r	.	8dd\J	.	8ff\J	.	.	.	.
16B-\	.	16dd\	.	.	.	.	.	.	.	.
!LO:LB:g=original	!	!	!	!	!	!	!	!	!	!
16.A\LL	.	16.cc\LL	.	8r	.	8r	.	.	.	.
32G\K	.	32b-\JJk	.	.	.	.	.	.	.	.
16.F\	.	16.a\LL	.	16r	.	16r	.	.	.	.
!	!	!	!	!	!	!	!LO:DY:a:rj	!	!	!
.	.	.	.	16b-\	.	16gg\	f	.	.	.
32E-\JJk	.	32b-\JJk	.	.	.	.	.	.	.	.
!	!	!	!	!	!	!LO:LB:g=original	!	!	!	!
=83	=83	=83	=83	=83	=83	=83	=83	=83	=83	=83
!LO:TX:t=P:problem:mixed beam	!	!	!	!	!	!	!	!	!	!
8D\L	.	8b-\L	.	8b-\	.	8ff\L	.	.	.	.
.	.	.	.	.	.	8qqaa-X/	.	.	.	.
8E-\	.	8e-\	.	(4b-\	.	(16gg\L	.	.	.	.
.	.	.	.	.	.	32ff\L	.	.	.	.
.	.	.	.	.	.	32ee-\JJJ)	.	.	.	.
8F\	.	8f\	.	.	.	8dd\L	.	.	.	.
8FF/J	.	8f\J	.	8a\)	.	8cc\J	.	.	.	.
=84	=84	=84	=84	=84	=84	=84	=84	=84	=84	=84
8BB-/L	.	4b-\	.	(16b-\LL	.	(4b-\	.	.	.	.
.	.	.	.	16dd\)	.	.	.	.	.	.
8BB-/	.	.	.	(16b-\	.	.	.	.	.	.
.	.	.	.	16dd\JJ)	.	.	.	.	.	.
8BB-/	.	[4dd\	.	(16b-\LL	.	8bb-\)	.	.	.	.
.	.	.	.	16dd\)	.	.	.	.	.	.
8BB-/J	.	.	.	(16b-\	.	16r	.	.	.	.
!	!	!	!	!	!	!	!LO:DY:a:rj:t=p&colon;	!	!	!
.	.	.	.	16ff\JJ)	.	16aa-X\	p	.	.	.
=85	=85	=85	=85	=85	=85	=85	=85	=85	=85	=85
!	!	!	!	!	!	!LO:SIC:v:s=(4aa-\	!	!	!	!
8BB-/L	.	4dd\]	.	(16b-\LL	.	(4aa\	.	1r	.	1r
.	.	.	.	16ff\)	.	.	.	.	.	.
8BB-/	.	.	.	(16b-\	.	.	.	.	.	.
.	.	.	.	16ff\JJ)	.	.	.	.	.	.
!	!	!	!	!LO:LB:g=original	!	!	!	!	!	!
8BB-/	.	4ee-\	.	(16b-\LL	.	8gg\)	.	.	.	.
.	.	.	.	16ee-\)	.	.	.	.	.	.
8BB-/J	.	.	.	(16cc\	.	16r	.	.	.	.
!	!	!	!	!	!	!	!LO:DY:a	!	!	!
.	.	.	.	16ee-\JJ)	.	16aan\	f	.	.	.
=86	=86	=86	=86	=86	=86	=86	=86	=86	=86	=86
8BB-/L	.	4ee-\	.	(16cc\LL	.	(4aa\	.	.	.	.
.	.	.	.	16ee-\)	.	.	.	.	.	.
8BB-/	.	.	.	(16cc\	.	.	.	.	.	.
.	.	.	.	16ee-\JJ)	.	.	.	.	.	.
8BB-/	.	[4dd\	.	(16b-\LL	.	8bb-\)	.	.	.	.
.	.	.	.	16dd\)	.	.	.	.	.	.
8BB-/J	.	.	.	(16b-\	.	16r	.	.	.	.
!	!	!	!	!	!	!	!LO:DY:a:rj:t=p&colon;	!	!	!
.	.	.	.	16ff\JJ)	.	16aa-X\	p	.	.	.
=87	=87	=87	=87	=87	=87	=87	=87	=87	=87	=87
!	!	!	!	!	!	!LO:SIC:v:s=(4aa-\	!	!	!	!
8BB-/L	.	4dd\]	.	(16b-\LL	.	(4aa\	.	2r	.	2r
.	.	.	.	16ff\)	.	.	.	.	.	.
8BB-/	.	.	.	(16b-\	.	.	.	.	.	.
.	.	.	.	16ff\JJ)	.	.	.	.	.	.
!	!	!LO:TX:t=P:problem:mixed beam	!	!	!	!	!	!	!	!
8BB-/	.	8ee-\L	.	(16b-\LL	.	8gg\)	.	.	.	.
.	.	.	.	16ee-\)	.	.	.	.	.	.
8BB-/J	.	8e-/J	.	(16b-\	.	16r	.	.	.	.
.	.	.	.	16e-\JJ)	.	16an/	.	.	.	.
=88	=88	=88	=88	=88	=88	=88	=88	=88	=88	=88
4.BB-/	.	(4e-\	.	(4e-/	.	4a/	.	4ryy	.	4r
.	.	8d\)	.	8d/)	.	8b-/	.	8ryy	.	8r
16ryy	.	16r	.	16ryy	.	16ryy	.	16ryy	.	16ryy
=:|!	=:|!	=:|!	=:|!	=:|!	=:|!	=:|!	=:|!	=:|!	=:|!	=:|!
*-	*-	*-	*-	*-	*-	*-	*-	*-	*-	*-
!!!system-decoration: [(s1,s2)][(s3,s4,s5)]s6
!!!ENC: Tomasz Grochalski
!!!END: 2021-02-16
!!!RDF**kern: | = vertical stroke
!!!EED: Andrzej Borzym
!!!EST: 2022-01-10
